X: 1
% T: For He's a Jolly Good Fellow
M: 6/8
L: 1/8
K: CMaj
%
z3 z2 G | "C"E2E EDE | F3 E2 E | \
w:For he's a fel-___low, for
"G"D2D DCD | "C"E3 C2 C | "C7"E2E EDE | \
w:he's a nice__ fel-low, for he's a jol-ly good
"F"F3 HA2 A | "C"G6 | A6 | G3 "G"F2 D| "C"C3 z3 |]
w:fel-low, which no\-bo\-dy no~bo~dy * can de-ny!
